src/assets/filled/Ram.svg

<?xml version="1.0" encoding="UTF-8"?>
<svg width="24" height="24" viewBox="0 0 24 24" xmlns="http://www.w3.org/2000/svg">
 <path d="m19.5 9c0.55 0 1-0.45 1-1v-1c0-3-1.53-5-5-5h-7c-3.53 0-5 2-5 5v10c0 2.3139 0.87827 4.0255 2.8949 4.6836 0.30155 0.0984 0.59402-0.1414 0.5929-0.4587l-0.00783-2.2249c0-1.66 1.35-3 3-3h4.01c1.64 0 2.99 1.34 3 2.98l0.0157 2.247c0.0022 0.3165 0.296 0.5531 0.5961 0.4524 1.9881-0.6668 2.8982-2.3767 2.8982-4.6794v-1.17c0-0.53-0.21-1.04-0.59-1.42l-0.82-0.82c-0.38-0.38-0.59-0.89-0.59-1.42v-2.17c0-0.55 0.45-1 1-1zm-5.53-0.47h-6c-0.41 0-0.75-0.34-0.75-0.75s0.34-0.75 0.75-0.75h6c0.41 0 0.75 0.34 0.75 0.75s-0.33 0.75-0.75 0.75z"/>
 <path d="m16.01 20.97c0.0056 0.5561-0.4437 1.01-0.9999 1.01h-6.0166c-0.54968 0-0.9963-0.4436-0.99998-0.9933l-0.01329-1.9867c0-1.1 0.89-2 2-2h4.01c1.1 0 1.99 0.89 2 1.99l0.0198 1.98z"/>
</svg>

<svg width="24" height="24" viewBox="0 0 24 24"  xmlns="http://www.w3.org/2000/svg">
<path d="M19.5 9C20.05 9 20.5 8.55 20.5 8V7C20.5 4 18.97 2 15.5 2H8.5C4.97 2 3.5 4 3.5 7V17C3.5 19.3139 4.37827 21.0255 6.39493 21.6836C6.69648 21.782 6.98895 21.5422 6.98783 21.2249L6.98 19C6.98 17.34 8.33 16 9.98 16H13.99C15.63 16 16.98 17.34 16.99 18.98L17.0057 21.227C17.0079 21.5435 17.3017 21.7801 17.6018 21.6794C19.5899 21.0126 20.5 19.3027 20.5 17V15.83C20.5 15.3 20.29 14.79 19.91 14.41L19.09 13.59C18.71 13.21 18.5 12.7 18.5 12.17V10C18.5 9.45 18.95 9 19.5 9ZM13.97 8.53H7.97C7.56 8.53 7.22 8.19 7.22 7.78C7.22 7.37 7.56 7.03 7.97 7.03H13.97C14.38 7.03 14.72 7.37 14.72 7.78C14.72 8.19 14.39 8.53 13.97 8.53Z" />
<path d="M16.0098 20.97C16.0154 21.5261 15.5661 21.98 15.0099 21.98H8.99325C8.44357 21.98 7.99695 21.5364 7.99327 20.9867L7.97998 19C7.97998 17.9 8.86998 17 9.97998 17H13.99C15.09 17 15.98 17.89 15.99 18.99L16.0098 20.97Z" />
</svg>
